svg/white/vrsc.svg

<svg height="32" viewBox="0 0 32 32" width="32" xmlns="http://www.w3.org/2000/svg"><path d="m16 32c-8.836556 0-16-7.163444-16-16s7.163444-16 16-16 16 7.163444 16 16-7.163444 16-16 16zm11.897561-17.4731707c-.2829269-2.3170732-1.2634147-4.54146345-2.7804878-6.31219515-1.0585366-1.25365854-2.3902439-2.27317074-3.8634147-2.99024391-1.9756097-.9707317-4.2195122-1.3707317-6.4097561-1.15609756-2.5658536.24390244-5.0439024 1.34146342-6.94146338 3.09268293-1.11219512 1.0097561-2.02439024 2.24390244-2.68292682 3.59512199-1.06829269 2.1853658-1.44390244 4.702439-1.06341464 7.102439.35609756 2.297561 1.4 4.4829268 2.97073171 6.2 2.24390244 2.502439 5.59024393 3.9658536 8.95121953 3.9268293 2.604878-.0097561 5.1951219-.9024391 7.2536585-2.5024391 1.4585366-1.1219512 2.6439025-2.5853658 3.4487805-4.2390244 1.0097561-2.0634146 1.4048781-4.4292683 1.1170732-6.7170731zm-3.6536586-2.5902439c-.0536585.0780487-.102439.1560975-.1414634.2439024-1.7609756 3.7073171-3.5170731 7.4097561-5.2780488 11.1170732-.2536585.5317073-.507317 1.0682927-.7951219 1.5804878-1.3073171-.0097561-2.6146342-.0048781-3.9219512-.0048781-2.0829269-4.2878048-4.15609759-8.5804878-6.24390247-12.8634146-.04390243-.0829268-.08780487-.1707317-.13170731-.2536585.03414634-.0243903.11219512-.0682927.14634146-.0878049.81463415-1.0146342 1.63902439-2.02439026 2.45853662-3.03902441.102439-.13170731.2195122-.25853658.3365853-.37560975.0536586.08780487.1073171.17560975.1512195.27317073.4536586 1.04390244.9170732 2.09268293 1.3804878 3.13658533.4682927 0 .9365854.0097561 1.4097561-.0195122.1707318.1609756.2634147.3756098.3317074.595122.0878048-.2243903.1219512-.4634146.1317073-.7073171.1512195-1.4.1756097-2.81463413.3268292-4.21463413.0243903-.30243902.4780488-.30243902.5170732-.0097561.1463415 1.32682927.1804878 2.66829269.2878049 4.00000003.0195122.4.0341463.8.1219512 1.1902439.2-.2634147.1365854-.7268293.502439-.8341464.3024391-.102439.6439025.0682927.9317074-.1121951.3951219-.2390244.5414634-.7073171.7902439-1.0731707.1414634-.2390244.4682926-.4097561.7317073-.2731708.2634146.1024391.3756097.3853659.5121951.6097561.1560976.2585366.297561.5463415.5512195.7170732.2243903.097561.4780488.1121951.7219512.1073171.492683-1.1121951 1-2.2195122 1.5024391-3.32682928.8780487 1.10243903 1.707317 2.23902438 2.5853658 3.34146338.1317073.0585366.1560976.1560976.0829268.2829269zm-6.1707317-1.395122c-.3951219.4292683-.5365853 1.1219512-1.1268292 1.3414634-.3024391.1463415-.6682927.0243903-.9707317.1365854-.2634147.5170732-.2292683 1.1268293-.4292683 1.6634146-.1365854.2536586-.5463415.1268293-.5463415-.1512195-.1707317-1.4585366-.1853659-2.9317073-.3414634-4.39024389-.1658537 1.31219509-.2097561 2.63902439-.4146342 3.94146339 0 .3365854-.5317073.3902439-.5804878.0536586-.102439-.3804878-.1268292-.7804878-.3170731-1.1365854-.3317074-.004878-.6634147-.004878-.9902439 0 1.2439024 2.8195122 2.4780487 5.6390244 3.7219512 8.4585366 1.2585366-2.8195122 2.5609756-5.6195122 3.8097561-8.4439025l.004878-.0097561c-.3268292-.0390243-.6829268-.0731707-.9560975-.2780487-.3804878-.3170732-.5268293-.8243903-.8634147-1.1853659z" fill="#fff"/></svg>

<?xml version="1.0" encoding="UTF-8"?>
<svg width="32px" height="32px" viewBox="0 0 32 32" version="1.1" xmlns="http://www.w3.org/2000/svg" xmlns:xlink="http://www.w3.org/1999/xlink">
    <!-- Generator: Sketch 50 (54983) - http://www.bohemiancoding.com/sketch -->
    <title>white/vrsc</title>
    <desc>Created with Sketch.</desc>
    <defs></defs>
    <g id="white/vrsc" stroke="none" stroke-width="1" fill="none" fill-rule="evenodd">
        <path d="M16,32 C7.163444,32 0,24.836556 0,16 C0,7.163444 7.163444,0 16,0 C24.836556,0 32,7.163444 32,16 C32,24.836556 24.836556,32 16,32 Z M27.897561,14.5268293 C27.6146341,12.2097561 26.6341463,9.98536585 25.1170732,8.21463415 C24.0585366,6.96097561 22.7268293,5.94146341 21.2536585,5.22439024 C19.2780488,4.25365854 17.0341463,3.85365854 14.8439024,4.06829268 C12.2780488,4.31219512 9.8,5.4097561 7.90243902,7.16097561 C6.7902439,8.17073171 5.87804878,9.40487805 5.2195122,10.7560976 C4.15121951,12.9414634 3.77560976,15.4585366 4.15609756,17.8585366 C4.51219512,20.1560976 5.55609756,22.3414634 7.12682927,24.0585366 C9.37073171,26.5609756 12.7170732,28.0243902 16.0780488,27.9853659 C18.6829268,27.9756098 21.2731707,27.0829268 23.3317073,25.4829268 C24.7902439,24.3609756 25.9756098,22.897561 26.7804878,21.2439024 C27.7902439,19.1804878 28.1853659,16.8146341 27.897561,14.5268293 Z M24.2439024,11.9365854 C24.1902439,12.0146341 24.1414634,12.0926829 24.102439,12.1804878 C22.3414634,15.8878049 20.5853659,19.5902439 18.8243902,23.297561 C18.5707317,23.8292683 18.3170732,24.3658537 18.0292683,24.8780488 C16.7219512,24.8682927 15.4146341,24.8731707 14.1073171,24.8731707 C12.0243902,20.5853659 9.95121951,16.2926829 7.86341463,12.0097561 C7.8195122,11.9268293 7.77560976,11.8390244 7.73170732,11.7560976 C7.76585366,11.7317073 7.84390244,11.6878049 7.87804878,11.6682927 C8.69268293,10.6536585 9.51707317,9.64390244 10.3365854,8.62926829 C10.4390244,8.49756098 10.5560976,8.37073171 10.6731707,8.25365854 C10.7268293,8.34146341 10.7804878,8.42926829 10.8243902,8.52682927 C11.2780488,9.57073171 11.7414634,10.6195122 12.204878,11.6634146 C12.6731707,11.6634146 13.1414634,11.6731707 13.6146341,11.6439024 C13.7853659,11.804878 13.8780488,12.0195122 13.9463415,12.2390244 C14.0341463,12.0146341 14.0682927,11.7756098 14.0780488,11.5317073 C14.2292683,10.1317073 14.2536585,8.71707317 14.404878,7.31707317 C14.4292683,7.01463415 14.8829268,7.01463415 14.9219512,7.30731707 C15.0682927,8.63414634 15.102439,9.97560976 15.2097561,11.3073171 C15.2292683,11.7073171 15.2439024,12.1073171 15.3317073,12.497561 C15.5317073,12.2341463 15.4682927,11.7707317 15.8341463,11.6634146 C16.1365854,11.5609756 16.4780488,11.7317073 16.7658537,11.5512195 C17.1609756,11.3121951 17.3073171,10.8439024 17.5560976,10.4780488 C17.697561,10.2390244 18.0243902,10.0682927 18.2878049,10.204878 C18.5512195,10.3073171 18.6634146,10.5902439 18.8,10.8146341 C18.9560976,11.0731707 19.097561,11.3609756 19.3512195,11.5317073 C19.5756098,11.6292683 19.8292683,11.6439024 20.0731707,11.6390244 C20.5658537,10.5268293 21.0731707,9.4195122 21.5756098,8.31219512 C22.4536585,9.41463415 23.2829268,10.5512195 24.1609756,11.6536585 C24.2926829,11.7121951 24.3170732,11.8097561 24.2439024,11.9365854 Z M18.0731707,10.5414634 C17.6780488,10.9707317 17.5365854,11.6634146 16.9463415,11.8829268 C16.6439024,12.0292683 16.2780488,11.9073171 15.9756098,12.0195122 C15.7121951,12.5365854 15.7463415,13.1463415 15.5463415,13.6829268 C15.4097561,13.9365854 15,13.8097561 15,13.5317073 C14.8292683,12.0731707 14.8146341,10.6 14.6585366,9.14146341 C14.4926829,10.4536585 14.4487805,11.7804878 14.2439024,13.0829268 C14.2439024,13.4195122 13.7121951,13.4731707 13.6634146,13.1365854 C13.5609756,12.7560976 13.5365854,12.3560976 13.3463415,12 C13.0146341,11.995122 12.6829268,11.995122 12.3560976,12 C13.6,14.8195122 14.8341463,17.6390244 16.0780488,20.4585366 C17.3365854,17.6390244 18.6390244,14.8390244 19.8878049,12.0146341 L19.8926829,12.004878 C19.5658537,11.9658537 19.2097561,11.9317073 18.9365854,11.7268293 C18.5560976,11.4097561 18.4097561,10.902439 18.0731707,10.5414634 Z" id="Combined-Shape" fill="#FFFFFF" fill-rule="nonzero"></path>
        <g id="VerusCoin-(VRSC)" transform="translate(4.000000, 4.000000)"></g>
    </g>
</svg>
